cmd/conneroh/_static/dist/svg/thermometer-snowflake.svg

<svg height="18" viewBox="0 0 18 18" width="18" xmlns="http://www.w3.org/2000/svg"><g fill="none" stroke="#fff" stroke-linecap="round" stroke-linejoin="round" stroke-width="2" transform="scale(.75)"><path d="m10 20-1.25-2.5-2.75.5m4-14-1.25 2.5-2.75-.5m4.583333 9h-.583333m-8-3h6.5l1.5-3m10 5.541667c1.567708.901041 2.333333 2.75 1.864583 4.5-.46875 1.744791-2.052083 2.963541-3.864583 2.963541s-3.395833-1.21875-3.864583-2.963541c-.46875-1.75.296875-3.598959 1.864583-4.5v-10.541667c0-1.104167.895833-2 2-2s2 .895833 2 2zm0 0"/><path d="m4 10 1.5 2-1.5 2m3 7 3-6-1.5-3m-1.5-9 3 6h2"/></g></svg>

<svg xmlns="http://www.w3.org/2000/svg" width="24" height="24" fill="none" stroke="white" stroke-linecap="round" stroke-linejoin="round" stroke-width="2">
    <path d="m10 20-1.25-2.5L6 18m4-14L8.75 6.5 6 6m4.585 9H10m-8-3h6.5L10 9m10 5.54a4 4 0 1 1-4 0V4a2 2 0 0 1 4 0z"/>
    <path d="m4 10 1.5 2L4 14m3 7 3-6-1.5-3M7 3l3 6h2"/>
</svg>
